X:1
T:Mysore, 77.77.67.67
T:Mysore, 77.77.67.67
T:J. Rosecrans, James & Charles Fillmore, 1887
T:Public Domain Courtesy of the Cyber Hymnal™
C:J. Rosecrans, James & Charles Fillmore, 1887
Z:Public Domain
Z:Courtesy of the Cyber Hymnal™
%%score ( 1 2 ) ( 3 4 )
L:1/8
Q:1/4=83
M:4/8
K:G
V:1 treble 
V:2 treble 
V:3 bass 
V:4 bass 
V:1
 [B,D][B,G][B,G][DB] | [DB][Gd] [Gd]2 | [Ge][Gd][GB]G | [GB][FA] [FA]2 | [B,D][B,G][B,G][DB] | %5
 [DB][Gd] [Gd]2 | [Ge][Gd][GB]G | [GB][FA] G2 | z G/>[GA]/ (Bd) | z G/>[GA]/ (Bd) | [Ge][Gd][GB]G | %11
 [GB][FA] [FA]2 | z G/>[GA]/ (Bd) | z G/>[GA]/ (Bd) | [Ge][Gd][GB]G | [GB][FA] G2 |] %16
V:2
 x4 | x4 | x3 G | x4 | x4 | x4 | x3 G | x2 G2 | x G3/4 G2 x/4 | x G3/4 G2 x/4 | x3 G | x4 | %12
 x G3/4 G2 x/4 | x G3/4 G2 x/4 | x3 G | x2 G2 |] %16
V:3
 G,G,G,G, | G,[G,B,] [G,B,]2 | [G,C][G,B,][G,D][G,B,] | [D,D][D,D] [D,D]2 | G,G,G,G, | %5
 G,[G,B,] [G,B,]2 | [G,C][G,B,][G,D][G,B,] | [D,D][D,C] [G,B,]2 | (z B,/>C/) (DB,) | %9
 (z B,/>C/) (DB,) | [G,C][G,B,][G,D][G,B,] | [D,D][D,D] [D,D]2 | (z B,/>C/) (DB,) | %13
 (z B,/>C/) (DB,) | [G,C][G,B,][G,D][G,B,] | [D,D][D,C] [G,B,]2 |] %16
V:4
 G,G,G,G, | G, x3 | x4 | x4 | G,G,G,G, | G, x3 | x4 | x4 | (G,2 D,2) | (G,2 D,2) | x4 | x4 | %12
 (G,2 D,2) | (G,2 D,2) | x4 | x4 |] %16

